brandFactory_export/2.Regular/Cohete_2Regular.svg

<?xml version="1.0" encoding="UTF-8"?>
<svg width="24px" height="24px" viewBox="0 0 24 24" version="1.1" xmlns="http://www.w3.org/2000/svg" xmlns:xlink="http://www.w3.org/1999/xlink">
    <title>2.Regular/Cohete_2Regular</title>
    <g id="Symbols" stroke="none" stroke-width="1" fill="none" fill-rule="evenodd">
        <g id="2.Regular/Cohete_2Regular" fill="#5CB615" fill-rule="nonzero">
            <path d="M14.8403361,9.50588235 C15.5361345,9.50588235 15.7815126,9.25714286 15.7815126,8.56134454 C15.7815126,7.86218487 15.5361345,7.61680672 14.8403361,7.61680672 C14.1478992,7.61680672 13.8991597,7.86554622 13.8991597,8.56134454 C13.8991597,9.25714286 14.1478992,9.50588235 14.8403361,9.50588235 Z M14.8403361,6.12773109 C16.3529412,6.12773109 17.2571429,7.03865546 17.2571429,8.55798319 C17.2571429,10.0806723 16.3529412,10.9882353 14.8403361,10.9882353 C13.3277311,10.9882353 12.4235294,10.0806723 12.4235294,8.55798319 C12.4235294,7.03865546 13.3277311,6.12773109 14.8403361,6.12773109 Z M4.96806723,20.2689076 C5.55630252,19.6773109 5.55630252,19.2201681 4.96806723,18.6285714 C4.67563025,18.3327731 4.41344538,18.1848739 4.15462185,18.1848739 C3.89243697,18.1848739 3.63361345,18.3327731 3.33781513,18.6285714 C2.73613445,19.2336134 1.78487395,20.4235294 1.5394958,22.0739496 C3.25714286,21.8117647 4.48067227,20.7596639 4.96806723,20.2689076 Z M2.29243697,17.5798319 C3.45882353,16.410084 4.85042017,16.4067227 6.01344538,17.5798319 C7.17647059,18.7529412 7.17647059,20.1512605 6.01344538,21.3210084 C5.32436975,22.0134454 3.43193277,23.6235294 0.739495798,23.6235294 C0.332773109,23.6235294 1.77635684e-15,23.2907563 1.77635684e-15,22.8806723 C1.77635684e-15,20.2722689 1.43529412,18.4403361 2.29243697,17.5798319 Z M17.5394958,14.0268908 C17.7243697,13.8621849 17.8957983,13.6907563 18.087395,13.4991597 C19.3848739,12.194958 20.2890756,10.5815126 20.9109244,8.96806723 L14.7092437,2.73277311 C13.0957983,3.36470588 11.4823529,4.2789916 10.1747899,5.59663866 C10.0067227,5.76470588 9.81176471,5.95966387 9.64369748,6.15462185 L8.99831933,6.88067227 C7.82857143,8.24201681 6.67563025,9.91260504 5.91596639,11.3310924 L5.51596639,12.1378151 C5.12268908,13.0117647 5.08235294,13.4117647 5.08235294,13.5394958 L10.1378151,18.6218487 C10.2352941,18.6319328 10.6554622,18.594958 11.5495798,18.1747899 L12.3731092,17.7747899 C13.7579832,17.0386555 15.3680672,15.9092437 16.7932773,14.6722689 L17.5394958,14.0268908 Z M17.9731092,17.7781513 C18.0571429,16.9579832 17.805042,16.312605 17.5932773,15.9361345 C16.4840336,16.8806723 15.2806723,17.7647059 14.1411765,18.4672269 C14.3495798,18.907563 14.5411765,19.3512605 14.7226891,19.7848739 C14.9512605,20.3294118 15.2739496,21.1058824 15.5092437,21.4352941 C17.0352941,20.2117647 17.8487395,18.994958 17.9731092,17.7781513 L17.9731092,17.7781513 Z M4.07731092,8.98823529 C4.46722689,9.15294118 4.86386555,9.32773109 5.25714286,9.51260504 C5.97647059,8.33613445 6.85378151,7.12605042 7.77478992,6.04033613 C7.38823529,5.8487395 6.80336134,5.64705882 6.07058824,5.71764706 C4.85042017,5.84201681 3.62689076,6.6789916 2.43361345,8.19831933 C2.76302521,8.4302521 3.53613445,8.75966387 4.07731092,8.98823529 Z M21.6201681,1.52268908 C20.6890756,1.41848739 18.5882353,1.5394958 16.2756303,2.20168067 L21.4386555,7.39495798 C22.107563,5.04201681 22.2252101,2.90756303 22.1142857,2.01008403 C22.0806723,1.75798319 21.8756303,1.55294118 21.6201681,1.52268908 L21.6201681,1.52268908 Z M19.1327731,14.5478992 C18.9915966,14.692437 18.8537815,14.8168067 18.7193277,14.9478992 C19.0554622,15.4655462 19.5764706,16.507563 19.4487395,17.8890756 C19.2907563,19.5831933 18.2285714,21.2033613 16.292437,22.7058824 C16.0067227,22.9512605 15.7142857,23.0184874 15.4890756,23.0184874 C15.3815126,23.0184874 15.2907563,23.005042 15.2201681,22.9882353 C14.3764706,22.789916 13.9529412,21.7714286 13.3613445,20.3630252 C13.2,19.9731092 13.0285714,19.5798319 12.8504202,19.1966387 L12.1848739,19.5226891 C11.3411765,19.9159664 10.6689076,20.1109244 10.1445378,20.1109244 C9.72773109,20.1109244 9.40168067,19.9865546 9.15630252,19.7411765 L3.97310924,14.5277311 C3.25378151,13.8655462 3.70420168,12.5613445 4.18151261,11.502521 L4.52773109,10.810084 C4.18823529,10.6554622 3.8487395,10.5042017 3.50588235,10.3596639 C2.10420168,9.76806723 1.09243697,9.33781513 0.894117647,8.4907563 C0.840336134,8.27226891 0.813445378,7.83529412 1.19663866,7.38151261 C2.66554622,5.46554622 4.27563025,4.39663866 5.96302521,4.23529412 C7.25714286,4.11428571 8.24537815,4.56806723 8.78991597,4.90420168 C8.90756303,4.77983193 9.02521008,4.65210084 9.13277311,4.54453782 C13.0857143,0.568067227 19.4789916,-0.218487395 21.7983193,0.0470588235 C22.7327731,0.168067227 23.4588235,0.897478992 23.5798319,1.82521008 C23.8184874,3.78823529 23.210084,10.4470588 19.1327731,14.5478992 Z" id="Cohete_2Regular"></path>
        </g>
    </g>
</svg>

<svg width="24" height="24" viewBox="0 0 24 24" xmlns="http://www.w3.org/2000/svg"><path d="M14.84 9.506c.696 0 .942-.249.942-.945 0-.699-.246-.944-.942-.944-.692 0-.94.249-.94.944 0 .696.248.945.94.945zm0-3.378c1.513 0 2.417.91 2.417 2.43 0 1.523-.904 2.43-2.417 2.43-1.512 0-2.416-.907-2.416-2.43 0-1.52.904-2.43 2.416-2.43zm-9.872 14.14c.588-.59.588-1.048 0-1.64-.292-.295-.555-.443-.813-.443-.263 0-.521.148-.817.444-.602.605-1.553 1.795-1.799 3.445 1.718-.262 2.942-1.314 3.43-1.805zM2.292 17.58c1.167-1.17 2.558-1.173 3.721 0 1.163 1.173 1.163 2.571 0 3.741-.689.692-2.581 2.303-5.274 2.303A.742.742 0 010 22.88c0-2.609 1.435-4.44 2.292-5.301zm15.247-3.553c.185-.165.357-.336.548-.528 1.298-1.304 2.202-2.917 2.824-4.53l-6.202-6.236c-1.613.632-3.227 1.546-4.534 2.864-.168.168-.363.363-.531.558l-.646.726c-1.17 1.361-2.322 3.032-3.082 4.45l-.4.807c-.393.874-.434 1.274-.434 1.401l5.056 5.083c.097.01.517-.027 1.412-.447l.823-.4c1.385-.736 2.995-1.866 4.42-3.103l.746-.645zm.434 3.751a3.113 3.113 0 00-.38-1.842 28.694 28.694 0 01-3.452 2.531c.209.44.4.884.582 1.318.228.544.55 1.32.786 1.65 1.526-1.223 2.34-2.44 2.464-3.657zM4.077 8.988c.39.165.787.34 1.18.525A28.354 28.354 0 017.775 6.04a3.127 3.127 0 00-1.704-.322c-1.22.124-2.444.961-3.637 2.48.329.232 1.102.562 1.643.79zM21.62 1.523c-.93-.105-3.032.016-5.344.679l5.163 5.193c.669-2.353.786-4.487.675-5.385a.57.57 0 00-.494-.487zm-2.487 13.025c-.141.144-.28.269-.414.4.336.518.857 1.56.73 2.941-.158 1.694-1.22 3.314-3.157 4.817a1.219 1.219 0 01-.803.312c-.107 0-.198-.013-.269-.03-.844-.198-1.267-1.217-1.859-2.625-.161-.39-.332-.783-.51-1.166l-.666.326c-.844.393-1.516.588-2.04.588-.417 0-.743-.124-.989-.37l-5.183-5.213c-.72-.662-.269-1.967.209-3.025l.346-.693a39.28 39.28 0 00-1.022-.45C2.104 9.768 1.092 9.338.894 8.49c-.054-.218-.08-.655.303-1.108 1.469-1.916 3.079-2.985 4.766-3.147a4.56 4.56 0 012.827.67c.118-.125.235-.253.343-.36C13.086.568 19.479-.218 21.798.047c.935.121 1.66.85 1.782 1.778.238 1.963-.37 8.622-4.447 12.723z" fill="#5CB615" fill-rule="nonzero"/></svg>
